X: 20240
T: Joe Derrane's
R: jig
M: 6/8
K: Bminor
|:A|BdB BAF|AFE EFE|DFA def|afe dc=c|
BdB BAF|AFE EFE|DFA def|edB B2:|
|:d|efe edB|AFE DFA|def a^ga|baf a^ga|
baf a^ga|baf edB|def afe|dBA B2:|

